dist/assets/images/main/itapplogo_color.svg

<svg width="123" height="31" viewBox="0 0 123 31" fill="none" xmlns="http://www.w3.org/2000/svg">
<rect width="123" height="31" fill="#E5E5E5"/>
<g id="Main" clip-path="url(#clip0_295_3293)">
<rect width="320" height="6046" transform="translate(-18 -17)" fill="white"/>
<g id="menu_top_mobile">
<g id="itapplogo_color">
<g id="i-Tapp">
<path d="M24.1395 7.9493H28.1256V24.9777H24.1395V7.9493ZM26.1485 5.14312C25.4257 5.14312 24.8198 4.9199 24.3309 4.47347C23.8419 4.00577 23.5974 3.43178 23.5974 2.75149C23.5974 2.07121 23.8419 1.50784 24.3309 1.06141C24.8198 0.593711 25.4257 0.359863 26.1485 0.359863C26.8713 0.359863 27.4772 0.583081 27.9661 1.02952C28.4551 1.4547 28.6996 1.9968 28.6996 2.65583C28.6996 3.35737 28.4551 3.95262 27.9661 4.44158C27.4984 4.90927 26.8926 5.14312 26.1485 5.14312Z" fill="#60B51C"/>
<path d="M32.4963 14.4545H41.2656V17.7709H32.4963V14.4545Z" fill="#60B51C"/>
<path d="M49.4166 6.16355H42.0185V2.65583H60.9602V6.16355H53.5621V24.9777H49.4166V6.16355Z" fill="#60B51C"/>
</g>
<g id="i-Tapp_2">
<path d="M70.1938 6.64185C72.7024 6.64185 74.6157 7.24773 75.9337 8.45948C77.2731 9.64998 77.9427 11.457 77.9427 13.8805V23.8616H74.1799V21.7888C73.6909 22.5329 72.9894 23.1069 72.0752 23.5108C71.1824 23.8935 70.0982 24.0848 68.8226 24.0848C67.5471 24.0848 66.431 23.8722 65.4743 23.447C64.5177 23.0006 63.7736 22.3947 63.2422 21.6294C62.7319 20.8428 62.4768 19.9606 62.4768 18.9827C62.4768 17.452 63.0402 16.2296 64.1669 15.3155C65.3149 14.3801 67.1113 13.9124 69.5561 13.9124H73.9567V13.6573C73.9567 12.4668 73.5953 11.5527 72.8725 10.9149C72.1709 10.2771 71.1186 9.95824 69.7155 9.95824C68.7589 9.95824 67.8128 10.1071 66.8774 10.4047C65.9633 10.7023 65.1874 11.1168 64.5496 11.6483L62.9871 8.74648C63.8799 8.06619 64.9535 7.54535 66.2078 7.18395C67.4621 6.82255 68.7907 6.64185 70.1938 6.64185ZM69.6517 21.183C70.6509 21.183 71.5331 20.9597 72.2985 20.5133C73.085 20.0456 73.6378 19.3866 73.9567 18.5362V16.5591H69.8431C67.5471 16.5591 66.3991 17.3138 66.3991 18.8232C66.3991 19.546 66.6861 20.12 67.2601 20.5452C67.8341 20.9704 68.6313 21.183 69.6517 21.183Z" fill="#2E1AAD"/>
<path d="M92.4973 6.64185C94.1555 6.64185 95.633 7.00325 96.9298 7.72605C98.2478 8.44885 99.2789 9.46928 100.023 10.7873C100.767 12.1054 101.139 13.6254 101.139 15.3474C101.139 17.0694 100.767 18.6 100.023 19.9393C99.2789 21.2574 98.2478 22.2778 96.9298 23.0006C95.633 23.7234 94.1555 24.0848 92.4973 24.0848C90.2013 24.0848 88.3837 23.3195 87.0443 21.7888V30.0479H83.0583V6.83318H86.853V9.06536C87.512 8.25752 88.3199 7.65164 89.2765 7.24772C90.2544 6.84381 91.328 6.64185 92.4973 6.64185ZM92.0508 20.6727C93.5177 20.6727 94.7188 20.1838 95.6542 19.2059C96.6109 18.228 97.0892 16.9418 97.0892 15.3474C97.0892 13.753 96.6109 12.4668 95.6542 11.4889C94.7188 10.511 93.5177 10.022 92.0508 10.022C91.0942 10.022 90.2332 10.2452 89.4679 10.6917C88.7025 11.1168 88.0967 11.7334 87.6502 12.5412C87.2038 13.349 86.9806 14.2844 86.9806 15.3474C86.9806 16.4103 87.2038 17.3457 87.6502 18.1536C88.0967 18.9614 88.7025 19.5885 89.4679 20.035C90.2332 20.4601 91.0942 20.6727 92.0508 20.6727Z" fill="#2E1AAD"/>
<path d="M114.358 6.64185C116.016 6.64185 117.494 7.00325 118.791 7.72605C120.109 8.44885 121.14 9.46928 121.884 10.7873C122.628 12.1054 123 13.6254 123 15.3474C123 17.0694 122.628 18.6 121.884 19.9393C121.14 21.2574 120.109 22.2778 118.791 23.0006C117.494 23.7234 116.016 24.0848 114.358 24.0848C112.062 24.0848 110.245 23.3195 108.905 21.7888V30.0479H104.919V6.83318H108.714V9.06536C109.373 8.25752 110.181 7.65164 111.138 7.24772C112.115 6.84381 113.189 6.64185 114.358 6.64185ZM113.912 20.6727C115.379 20.6727 116.58 20.1838 117.515 19.2059C118.472 18.228 118.95 16.9418 118.95 15.3474C118.95 13.753 118.472 12.4668 117.515 11.4889C116.58 10.511 115.379 10.022 113.912 10.022C112.955 10.022 112.094 10.2452 111.329 10.6917C110.564 11.1168 109.958 11.7334 109.511 12.5412C109.065 13.349 108.842 14.2844 108.842 15.3474C108.842 16.4103 109.065 17.3457 109.511 18.1536C109.958 18.9614 110.564 19.5885 111.329 20.035C112.094 20.4601 112.955 20.6727 113.912 20.6727Z" fill="#2E1AAD"/>
</g>
<g id="Group">
<path id="Vector" d="M16.7135 19.8824C16.6884 19.7176 16.6472 19.5545 16.607 19.392C16.1946 17.723 15.262 16.2749 14.3112 14.8415C13.7783 14.0385 13.2527 14.0085 12.4892 14.6516C11.5243 14.0001 11.3961 14.003 10.5175 14.621C10.0793 14.4951 9.70379 14.2832 9.35539 14.3162C9.00642 14.3491 8.68458 14.6267 8.318 14.8141C8.28077 14.7601 8.19879 14.6521 8.12836 14.5375C7.75428 13.9273 7.3851 13.3148 7.01015 12.7052C6.8791 12.4925 6.69408 12.3401 6.4851 12.2593C6.27641 12.1784 6.04405 12.1689 5.81862 12.2414C5.33283 12.3981 5.05573 12.8063 5.16368 13.2632C5.20871 13.4537 5.31724 13.6367 5.42375 13.809C6.28911 15.2112 7.16198 16.6094 8.02993 18.0102C8.26662 18.3924 8.49436 18.7792 8.72644 19.1637C8.70046 19.1842 8.67448 19.2047 8.64821 19.2252C8.31512 19.1071 7.9875 18.9732 7.64777 18.8747C7.06037 18.7044 6.47818 18.7267 5.94505 19.0346C5.52276 19.2786 5.51756 19.6131 5.9107 19.8983C6.94232 20.6467 7.952 21.4241 9.01941 22.126C9.46624 22.4199 10.0354 22.5558 10.5527 22.7556C10.8015 22.8517 11.0821 22.8941 11.3066 23.0229C11.6126 23.1981 11.8652 23.1986 12.1775 23.0338C13.4836 22.3445 14.8016 21.6743 16.1152 20.9966C16.6861 20.7022 16.8056 20.4842 16.7135 19.8824Z" fill="#2E1AAD"/>
<g id="Group_2">
<g id="Group_3">
<path id="Vector_2" d="M4.94768 14.1028C4.81635 13.8901 4.68271 13.6598 4.61949 13.3919C4.44429 12.6524 4.86686 11.9599 5.64736 11.7082C5.99258 11.5968 6.35223 11.6069 6.68793 11.7368C7.01006 11.8615 7.28052 12.0867 7.47276 12.3886C7.34719 11.3945 6.49915 10.6252 5.471 10.6252C4.35625 10.6252 3.4525 11.529 3.4525 12.6437C3.4525 13.6967 4.25926 14.5612 5.28829 14.6536C5.17427 14.4697 5.06054 14.2858 4.94768 14.1028Z" fill="#60B51C"/>
</g>
<path id="Vector_3" d="M7.25164 17.8174C7.00774 17.4243 6.76354 17.0312 6.51935 16.638C6.50203 16.61 6.48414 16.5815 6.46682 16.5535C6.14815 16.6346 5.81448 16.6776 5.47041 16.6776C3.24264 16.6776 1.43659 14.8715 1.43659 12.6438C1.43659 10.416 3.24264 8.60993 5.47041 8.60993C7.69818 8.60993 9.50423 10.416 9.50423 12.6438C9.50423 13.0294 9.44997 13.4023 9.34894 13.7556C9.69474 13.7348 10.0082 13.8491 10.3116 13.9603C10.35 13.9744 10.3889 13.9886 10.4279 14.0024C10.5679 13.9086 10.6984 13.8281 10.8259 13.7643C10.9013 13.4026 10.9411 13.0277 10.9411 12.6438C10.9411 9.6225 8.49195 7.17334 5.4707 7.17334C2.44945 7.17334 0 9.6225 0 12.6438C0 15.665 2.44916 18.1142 5.47041 18.1142C6.09417 18.1142 6.6934 18.0097 7.25164 17.8174Z" fill="#2E1AAD"/>
</g>
</g>
</g>
</g>
</g>
<defs>
<clipPath id="clip0_295_3293">
<rect width="320" height="6046" fill="white" transform="translate(-18 -17)"/>
</clipPath>
</defs>
</svg>

<svg width="123" height="31" fill="none" xmlns="http://www.w3.org/2000/svg"><path fill="#E5E5E5" d="M0 0h123v31H0z"/><g clip-path="url(#clip0_295_3293)"><path fill="#fff" d="M-18-17h320v6046H-18z"/><path d="M24.14 7.95h3.986v17.028H24.14V7.949zm2.008-2.807c-.722 0-1.328-.223-1.817-.67a2.29 2.29 0 01-.734-1.722c0-.68.245-1.243.734-1.69C24.82.594 25.426.36 26.148.36c.723 0 1.33.223 1.818.67.49.425.734.967.734 1.626a2.43 2.43 0 01-.734 1.786c-.468.467-1.073.701-1.818.701zm6.348 9.311h8.77v3.317h-8.77v-3.317zm16.921-8.29h-7.398V2.656H60.96v3.508h-7.398v18.814h-4.145V6.164z" fill="#60B51C"/><path d="M70.194 6.642c2.508 0 4.422.606 5.74 1.817 1.34 1.191 2.009 2.998 2.009 5.421v9.982H74.18v-2.073c-.49.744-1.19 1.318-2.105 1.722-.893.383-1.977.574-3.252.574-1.276 0-2.392-.213-3.349-.638-.956-.446-1.7-1.052-2.232-1.818-.51-.786-.765-1.668-.765-2.646 0-1.531.563-2.753 1.69-3.668 1.148-.935 2.944-1.403 5.39-1.403h4.4v-.255c0-1.19-.362-2.104-1.084-2.742-.702-.638-1.754-.957-3.157-.957a9.31 9.31 0 00-2.839.447c-.914.297-1.69.712-2.327 1.243l-1.563-2.902c.893-.68 1.967-1.2 3.22-1.562a14.33 14.33 0 013.987-.542zm-.542 14.541c.999 0 1.881-.223 2.647-.67a3.787 3.787 0 001.658-1.977V16.56h-4.114c-2.296 0-3.444.755-3.444 2.264 0 .723.287 1.297.861 1.722.574.425 1.371.638 2.392.638zM92.497 6.642c1.659 0 3.136.361 4.433 1.084a7.79 7.79 0 013.093 3.061c.744 1.318 1.116 2.838 1.116 4.56 0 1.722-.372 3.253-1.116 4.592a7.79 7.79 0 01-3.093 3.062c-1.297.722-2.775 1.084-4.433 1.084-2.296 0-4.113-.765-5.453-2.296v8.259h-3.986V6.833h3.795v2.232a6.191 6.191 0 012.424-1.817c.977-.404 2.051-.606 3.22-.606zm-.446 14.03c1.467 0 2.668-.488 3.603-1.466.957-.978 1.435-2.264 1.435-3.859 0-1.594-.478-2.88-1.435-3.858-.935-.978-2.136-1.467-3.603-1.467-.957 0-1.818.223-2.583.67-.766.425-1.371 1.041-1.818 1.85-.446.807-.67 1.742-.67 2.805 0 1.063.224 1.999.67 2.807a4.838 4.838 0 001.818 1.881c.765.425 1.626.638 2.583.638zm22.307-14.03c1.658 0 3.136.361 4.433 1.084a7.79 7.79 0 013.093 3.061c.744 1.318 1.116 2.838 1.116 4.56 0 1.722-.372 3.253-1.116 4.592a7.79 7.79 0 01-3.093 3.062c-1.297.722-2.775 1.084-4.433 1.084-2.296 0-4.113-.765-5.453-2.296v8.259h-3.986V6.833h3.795v2.232a6.19 6.19 0 012.424-1.817c.977-.404 2.051-.606 3.22-.606zm-.446 14.03c1.467 0 2.668-.488 3.603-1.466.957-.978 1.435-2.264 1.435-3.859 0-1.594-.478-2.88-1.435-3.858-.935-.978-2.136-1.467-3.603-1.467-.957 0-1.818.223-2.583.67-.765.425-1.371 1.041-1.818 1.85-.446.807-.669 1.742-.669 2.805 0 1.063.223 1.999.669 2.807a4.845 4.845 0 001.818 1.881c.765.425 1.626.638 2.583.638zm-97.199-.79c-.025-.164-.066-.328-.106-.49-.412-1.669-1.345-3.117-2.296-4.55-.533-.803-1.058-.834-1.822-.19-.965-.652-1.093-.649-1.972-.031-.438-.126-.813-.338-1.162-.305-.349.033-.67.31-1.037.498-.037-.054-.12-.162-.19-.277-.374-.61-.743-1.222-1.118-1.832a1.075 1.075 0 00-.525-.446.992.992 0 00-.666-.018c-.486.157-.763.565-.655 1.022.045.19.153.374.26.546.865 1.402 1.738 2.8 2.606 4.201.237.382.464.77.696 1.154l-.078.061c-.333-.118-.66-.252-1-.35-.588-.17-1.17-.148-1.703.16-.422.244-.427.578-.034.863 1.031.749 2.041 1.526 3.108 2.228.447.294 1.016.43 1.534.63.248.096.53.138.754.267.306.175.558.176.87.01 1.307-.689 2.625-1.359 3.938-2.036.571-.295.69-.513.599-1.115z" fill="#2E1AAD"/><path d="M4.948 14.103c-.132-.213-.265-.443-.329-.711-.175-.74.248-1.432 1.028-1.684a1.541 1.541 0 011.04.029c.323.124.594.35.786.652a2.019 2.019 0 10-2.185 2.265l-.34-.551z" fill="#60B51C"/><path d="M7.252 17.817l-.733-1.179-.052-.085a4.034 4.034 0 112.882-2.798c.346-.02.66.094.963.205.038.014.077.029.116.042.14-.093.27-.174.398-.238a5.47 5.47 0 10-3.574 4.053z" fill="#2E1AAD"/></g><defs><clipPath id="clip0_295_3293"><path fill="#fff" transform="translate(-18 -17)" d="M0 0h320v6046H0z"/></clipPath></defs></svg>
